apps/cave/public/assets/connectors/metamask.svg

<svg width="28" height="28" viewBox="0 0 28 28" fill="none" xmlns="http://www.w3.org/2000/svg">
<rect width="28" height="28" fill="white"/>
<path d="M24.0891 3.1199L15.3446 9.61456L16.9617 5.7828L24.0891 3.1199Z" fill="#E2761B" stroke="#E2761B" stroke-width="0.0878845" stroke-linecap="round" stroke-linejoin="round"/>
<path d="M3.90207 3.1199L12.5763 9.67608L11.0383 5.7828L3.90207 3.1199Z" fill="#E4761B" stroke="#E4761B" stroke-width="0.0878845" stroke-linecap="round" stroke-linejoin="round"/>
<path d="M20.9429 18.1745L18.6139 21.7426L23.597 23.1136L25.0295 18.2536L20.9429 18.1745Z" fill="#E4761B" stroke="#E4761B" stroke-width="0.0878845" stroke-linecap="round" stroke-linejoin="round"/>
<path d="M2.97929 18.2536L4.40301 23.1136L9.38607 21.7426L7.05713 18.1745L2.97929 18.2536Z" fill="#E4761B" stroke="#E4761B" stroke-width="0.0878845" stroke-linecap="round" stroke-linejoin="round"/>
<path d="M9.10483 12.1456L7.71626 14.2461L12.6642 14.4658L12.4884 9.14877L9.10483 12.1456Z" fill="#E4761B" stroke="#E4761B" stroke-width="0.0878845" stroke-linecap="round" stroke-linejoin="round"/>
<path d="M18.8864 12.1456L15.4589 9.08725L15.3446 14.4658L20.2837 14.2461L18.8864 12.1456Z" fill="#E4761B" stroke="#E4761B" stroke-width="0.0878845" stroke-linecap="round" stroke-linejoin="round"/>
<path d="M9.38606 21.7426L12.3566 20.2925L9.79033 18.2888L9.38606 21.7426Z" fill="#E4761B" stroke="#E4761B" stroke-width="0.0878845" stroke-linecap="round" stroke-linejoin="round"/>
<path d="M15.6347 20.2925L18.6139 21.7426L18.2009 18.2888L15.6347 20.2925Z" fill="#E4761B" stroke="#E4761B" stroke-width="0.0878845" stroke-linecap="round" stroke-linejoin="round"/>
<path d="M18.6139 21.7426L15.6347 20.2925L15.8719 22.2348L15.8456 23.0521L18.6139 21.7426Z" fill="#D7C1B3" stroke="#D7C1B3" stroke-width="0.0878845" stroke-linecap="round" stroke-linejoin="round"/>
<path d="M9.38606 21.7426L12.1544 23.0521L12.1368 22.2348L12.3566 20.2925L9.38606 21.7426Z" fill="#D7C1B3" stroke="#D7C1B3" stroke-width="0.0878845" stroke-linecap="round" stroke-linejoin="round"/>
<path d="M12.1984 17.0056L9.72002 16.2762L11.4689 15.4765L12.1984 17.0056Z" fill="#233447" stroke="#233447" stroke-width="0.0878845" stroke-linecap="round" stroke-linejoin="round"/>
<path d="M15.7928 17.0056L16.5223 15.4765L18.28 16.2762L15.7928 17.0056Z" fill="#233447" stroke="#233447" stroke-width="0.0878845" stroke-linecap="round" stroke-linejoin="round"/>
<path d="M9.38606 21.7426L9.80791 18.1745L7.05712 18.2536L9.38606 21.7426Z" fill="#CD6116" stroke="#CD6116" stroke-width="0.0878845" stroke-linecap="round" stroke-linejoin="round"/>
<path d="M18.1921 18.1745L18.6139 21.7426L20.9429 18.2536L18.1921 18.1745Z" fill="#CD6116" stroke="#CD6116" stroke-width="0.0878845" stroke-linecap="round" stroke-linejoin="round"/>
<path d="M20.2837 14.2461L15.3446 14.4658L15.8016 17.0057L16.5311 15.4765L18.2888 16.2762L20.2837 14.2461Z" fill="#CD6116" stroke="#CD6116" stroke-width="0.0878845" stroke-linecap="round" stroke-linejoin="round"/>
<path d="M9.72002 16.2762L11.4777 15.4765L12.1984 17.0057L12.6642 14.4658L7.71626 14.2461L9.72002 16.2762Z" fill="#CD6116" stroke="#CD6116" stroke-width="0.0878845" stroke-linecap="round" stroke-linejoin="round"/>
<path d="M7.71626 14.2461L9.79033 18.2888L9.72002 16.2762L7.71626 14.2461Z" fill="#E4751F" stroke="#E4751F" stroke-width="0.0878845" stroke-linecap="round" stroke-linejoin="round"/>
<path d="M18.2888 16.2762L18.2009 18.2888L20.2837 14.2461L18.2888 16.2762Z" fill="#E4751F" stroke="#E4751F" stroke-width="0.0878845" stroke-linecap="round" stroke-linejoin="round"/>
<path d="M12.6642 14.4658L12.1984 17.0057L12.7784 20.0025L12.9102 16.0565L12.6642 14.4658Z" fill="#E4751F" stroke="#E4751F" stroke-width="0.0878845" stroke-linecap="round" stroke-linejoin="round"/>
<path d="M15.3446 14.4658L15.1073 16.0477L15.2128 20.0025L15.8016 17.0057L15.3446 14.4658Z" fill="#E4751F" stroke="#E4751F" stroke-width="0.0878845" stroke-linecap="round" stroke-linejoin="round"/>
<path d="M15.8016 17.0056L15.2128 20.0025L15.6347 20.2925L18.2009 18.2888L18.2888 16.2762L15.8016 17.0056Z" fill="#F6851B" stroke="#F6851B" stroke-width="0.0878845" stroke-linecap="round" stroke-linejoin="round"/>
<path d="M9.72002 16.2762L9.79033 18.2888L12.3566 20.2925L12.7784 20.0025L12.1984 17.0056L9.72002 16.2762Z" fill="#F6851B" stroke="#F6851B" stroke-width="0.0878845" stroke-linecap="round" stroke-linejoin="round"/>
<path d="M15.8456 23.0521L15.8719 22.2348L15.6522 22.0414H12.339L12.1368 22.2348L12.1544 23.0521L9.38606 21.7426L10.3528 22.5336L12.3126 23.8958H15.6786L17.6472 22.5336L18.6139 21.7426L15.8456 23.0521Z" fill="#C0AD9E" stroke="#C0AD9E" stroke-width="0.0878845" stroke-linecap="round" stroke-linejoin="round"/>
<path d="M15.6347 20.2925L15.2128 20.0025H12.7784L12.3566 20.2925L12.1368 22.2348L12.339 22.0414H15.6522L15.8719 22.2348L15.6347 20.2925Z" fill="#161616" stroke="#161616" stroke-width="0.0878845" stroke-linecap="round" stroke-linejoin="round"/>
<path d="M24.4583 10.0364L25.2053 6.45072L24.0891 3.1199L15.6347 9.39485L18.8864 12.1456L23.4827 13.4903L24.5022 12.3038L24.0628 11.9874L24.7658 11.3459L24.221 10.924L24.924 10.3879L24.4583 10.0364Z" fill="#763D16" stroke="#763D16" stroke-width="0.0878845" stroke-linecap="round" stroke-linejoin="round"/>
<path d="M2.79472 6.45072L3.54174 10.0364L3.06717 10.3879L3.77024 10.924L3.23415 11.3459L3.93722 11.9874L3.4978 12.3038L4.50847 13.4903L9.10483 12.1456L12.3566 9.39485L3.90207 3.1199L2.79472 6.45072Z" fill="#763D16" stroke="#763D16" stroke-width="0.0878845" stroke-linecap="round" stroke-linejoin="round"/>
<path d="M23.4827 13.4903L18.8864 12.1456L20.2837 14.2461L18.2009 18.2888L20.9429 18.2536H25.0295L23.4827 13.4903Z" fill="#F6851B" stroke="#F6851B" stroke-width="0.0878845" stroke-linecap="round" stroke-linejoin="round"/>
<path d="M9.10484 12.1456L4.50848 13.4903L2.97929 18.2536H7.05713L9.79033 18.2888L7.71626 14.2461L9.10484 12.1456Z" fill="#F6851B" stroke="#F6851B" stroke-width="0.0878845" stroke-linecap="round" stroke-linejoin="round"/>
<path d="M15.3446 14.4658L15.6347 9.39485L16.9705 5.7828H11.0383L12.3566 9.39485L12.6642 14.4658L12.7696 16.0653L12.7784 20.0025H15.2128L15.2304 16.0653L15.3446 14.4658Z" fill="#F6851B" stroke="#F6851B" stroke-width="0.0878845" stroke-linecap="round" stroke-linejoin="round"/>
</svg>

<svg xmlns="http://www.w3.org/2000/svg" fill="none" viewBox="0 0 28 28">
  <g clip-path="url(#a)">
    <path fill="#fff" d="M28 0H0v28h28V0Z"/>
    <path fill="#E2761B" stroke="#E2761B" stroke-linecap="round" stroke-linejoin="round" stroke-width=".088" d="m24.089 3.12-8.744 6.495 1.617-3.832 7.127-2.663Z"/>
    <path fill="#E4761B" stroke="#E4761B" stroke-linecap="round" stroke-linejoin="round" stroke-width=".088" d="m3.902 3.12 8.674 6.556-1.538-3.893L3.902 3.12Zm17.041 15.055-2.329 3.568 4.983 1.37 1.433-4.86-4.087-.078Zm-17.963.079 1.423 4.86 4.983-1.371-2.329-3.568-4.078.079Z"/>
    <path fill="#E4761B" stroke="#E4761B" stroke-linecap="round" stroke-linejoin="round" stroke-width=".088" d="m9.105 12.146-1.389 2.1 4.948.22-.176-5.317-3.383 2.997Zm9.781 0L15.46 9.087l-.114 5.379 4.939-.22-1.398-2.1Zm-9.5 9.597 2.97-1.45-2.566-2.004-.404 3.454Zm6.249-1.45 2.979 1.45-.413-3.454-2.566 2.003Z"/>
    <path fill="#D7C1B3" stroke="#D7C1B3" stroke-linecap="round" stroke-linejoin="round" stroke-width=".088" d="m18.614 21.743-2.98-1.45.238 1.942-.026.817 2.768-1.31Zm-9.228 0 2.768 1.31-.017-.818.22-1.942-2.971 1.45Z"/>
    <path fill="#233447" stroke="#233447" stroke-linecap="round" stroke-linejoin="round" stroke-width=".088" d="m12.198 17.006-2.478-.73 1.749-.8.73 1.53Zm3.595 0 .73-1.53 1.757.8-2.487.73Z"/>
    <path fill="#CD6116" stroke="#CD6116" stroke-linecap="round" stroke-linejoin="round" stroke-width=".088" d="m9.386 21.743.422-3.568-2.75.079 2.328 3.489Zm8.806-3.568.422 3.568 2.329-3.49-2.75-.078Zm2.092-3.929-4.94.22.458 2.54.729-1.53 1.758.8 1.995-2.03ZM9.72 16.276l1.758-.8.72 1.53.466-2.54-4.948-.22 2.004 2.03Z"/>
    <path fill="#E4751F" stroke="#E4751F" stroke-linecap="round" stroke-linejoin="round" stroke-width=".088" d="M7.716 14.246 9.79 18.29l-.07-2.013-2.004-2.03Zm10.573 2.03L18.2 18.29l2.083-4.043-1.995 2.03Zm-5.625-1.81-.466 2.54.58 2.997.132-3.947-.246-1.59Zm2.681 0-.238 1.582.106 3.955.589-2.997-.457-2.54Z"/>
    <path fill="#F6851B" stroke="#F6851B" stroke-linecap="round" stroke-linejoin="round" stroke-width=".088" d="m15.802 17.006-.59 2.997.423.29 2.566-2.004.088-2.013-2.487.73Zm-6.082-.73.07 2.013 2.567 2.003.421-.29-.58-2.996-2.478-.73Z"/>
    <path fill="#C0AD9E" stroke="#C0AD9E" stroke-linecap="round" stroke-linejoin="round" stroke-width=".088" d="m15.845 23.052.027-.817-.22-.194H12.34l-.202.194.017.817-2.768-1.31.967.792 1.96 1.362h3.365l1.97-1.362.966-.791-2.769 1.31Z"/>
    <path fill="#161616" stroke="#161616" stroke-linecap="round" stroke-linejoin="round" stroke-width=".088" d="m15.635 20.292-.422-.29h-2.435l-.421.29-.22 1.943.202-.194h3.313l.22.194-.237-1.943Z"/>
    <path fill="#763D16" stroke="#763D16" stroke-linecap="round" stroke-linejoin="round" stroke-width=".088" d="m24.458 10.036.747-3.585L24.09 3.12l-8.454 6.275 3.252 2.75 4.596 1.345 1.02-1.186-.44-.317.703-.641-.545-.422.703-.536-.466-.352ZM2.795 6.45l.747 3.586-.475.352.703.536-.536.422.703.641-.44.317 1.011 1.186 4.597-1.344 3.252-2.751L3.902 3.12 2.795 6.45Z"/>
    <path fill="#F6851B" stroke="#F6851B" stroke-linecap="round" stroke-linejoin="round" stroke-width=".088" d="m23.483 13.49-4.597-1.344 1.398 2.1L18.2 18.29l2.742-.035h4.086l-1.546-4.764ZM9.105 12.146 4.508 13.49 2.98 18.254h4.078l2.733.035-2.074-4.043 1.389-2.1Zm6.24 2.32.29-5.071 1.336-3.612h-5.933l1.319 3.612.307 5.07.106 1.6.008 3.938h2.435l.017-3.938.115-1.6Z"/>
  </g>
  <defs>
    <clipPath id="a">
      <rect width="28" height="28" fill="#fff" rx="6"/>
    </clipPath>
  </defs>
</svg>
